src/assets/icons/bath.svg

<svg width="22" height="21" viewBox="0 0 22 21" fill="none" xmlns="http://www.w3.org/2000/svg">
<path d="M19.2538 10.2704H21.956V11.5558C21.956 12.7373 21.7076 13.9074 21.2248 14.999C20.7421 16.0906 20.0345 17.0825 19.1426 17.918C18.2506 18.7535 17.1917 19.4163 16.0262 19.8685C14.8608 20.3206 13.6117 20.5534 12.3503 20.5534H9.60576C7.05815 20.5534 4.61489 19.6054 2.81346 17.918C1.01203 16.2306 0 13.9421 0 11.5558V10.2704H16.5093V4.51812C16.5093 4.26231 16.4555 4.009 16.351 3.77267C16.2464 3.53634 16.0932 3.32162 15.9 3.14077C15.7069 2.95993 15.4776 2.81651 15.2252 2.7187C14.9728 2.62089 14.7024 2.57061 14.4293 2.57074H13.738C13.1086 2.57074 12.5762 2.96408 12.407 3.50336C12.8324 3.7318 13.1858 4.06142 13.4314 4.45887C13.6771 4.85632 13.8063 5.3075 13.8061 5.76677H8.23351C8.23343 5.30921 8.36179 4.85968 8.60572 4.46326C8.84965 4.06684 9.20058 3.73747 9.6233 3.50819C9.7199 2.54843 10.1953 1.65696 10.9565 1.00814C11.7176 0.359321 12.7099 -0.000164677 13.739 5.65916e-08H14.4303C15.7096 5.65916e-08 16.9365 0.476015 17.841 1.32333C18.7456 2.17064 19.2538 3.31984 19.2538 4.51812V10.2704Z" fill="black"/>
</svg>

<svg xmlns="http://www.w3.org/2000/svg" width="22" height="21" fill="none"><path fill="#000" d="M19.254 10.27h2.702v1.286a8.5 8.5 0 0 1-.731 3.443 9 9 0 0 1-2.082 2.919 9.7 9.7 0 0 1-3.117 1.95 10.2 10.2 0 0 1-3.676.685H9.606c-2.548 0-4.991-.948-6.793-2.635C1.012 16.231 0 13.942 0 11.556V10.27h16.51V4.518c0-.256-.055-.509-.159-.745a1.95 1.95 0 0 0-.451-.632 2.1 2.1 0 0 0-.675-.422 2.2 2.2 0 0 0-.796-.148h-.691c-.63 0-1.162.393-1.331.932.425.229.779.558 1.024.956.246.397.375.849.375 1.308H8.234c0-.458.128-.907.372-1.304a2.7 2.7 0 0 1 1.017-.955 3.8 3.8 0 0 1 1.334-2.5A4.3 4.3 0 0 1 13.739 0h.691c1.28 0 2.506.476 3.411 1.323.905.848 1.413 1.997 1.413 3.195z"/></svg>
